flaticon/essential/megaphone.svg

<svg xmlns="http://www.w3.org/2000/svg" width="32" height="32" viewBox="0 0 24 24">
    <path d="M 21.894531 1.261719 C 20.734375 1.261719 19.789062 2.207031 19.789062 3.367188 L 19.789062 4.324219 L 3.351562 9.535156 C 3.277344 8.675781 2.5625 8 1.683594 8 C 0.753906 8 0 8.753906 0 9.683594 L 0 14.316406 C 0 15.246094 0.753906 16 1.683594 16 C 2.5625 16 3.277344 15.324219 3.351562 14.464844 L 4.769531 14.914062 C 4.558594 15.105469 4.386719 15.347656 4.292969 15.640625 C 4.152344 16.066406 4.191406 16.523438 4.394531 16.925781 C 4.601562 17.328125 4.949219 17.625 5.375 17.761719 L 11.382812 19.707031 C 11.554688 19.761719 11.726562 19.789062 11.902344 19.789062 C 12.164062 19.789062 12.425781 19.726562 12.667969 19.605469 C 13.070312 19.398438 13.367188 19.050781 13.503906 18.625 C 13.601562 18.320312 13.609375 17.996094 13.53125 17.691406 L 19.789062 19.675781 L 19.789062 20.632812 C 19.789062 21.792969 20.734375 22.738281 21.894531 22.738281 C 23.054688 22.738281 24 21.792969 24 20.632812 L 24 3.367188 C 24 2.207031 23.054688 1.261719 21.894531 1.261719 Z M 12.703125 18.363281 C 12.636719 18.578125 12.484375 18.75 12.285156 18.855469 C 12.085938 18.957031 11.855469 18.976562 11.644531 18.90625 L 5.636719 16.960938 C 5.421875 16.890625 5.25 16.742188 5.144531 16.542969 C 5.042969 16.339844 5.023438 16.113281 5.09375 15.898438 C 5.207031 15.542969 5.539062 15.316406 5.894531 15.316406 C 5.980469 15.316406 6.066406 15.332031 6.152344 15.359375 L 12.164062 17.304688 C 12.605469 17.449219 12.847656 17.921875 12.703125 18.363281 Z M 2.527344 14.316406 C 2.527344 14.78125 2.148438 15.15625 1.683594 15.15625 C 1.21875 15.15625 0.84375 14.78125 0.84375 14.316406 L 0.84375 9.683594 C 0.84375 9.21875 1.21875 8.84375 1.683594 8.84375 C 2.148438 8.84375 2.527344 9.21875 2.527344 9.683594 Z M 3.367188 13.585938 L 3.367188 10.414062 L 19.789062 5.207031 L 19.789062 18.792969 Z M 23.15625 20.632812 C 23.15625 21.328125 22.589844 21.894531 21.894531 21.894531 C 21.199219 21.894531 20.632812 21.328125 20.632812 20.632812 L 20.632812 3.367188 C 20.632812 2.671875 21.199219 2.105469 21.894531 2.105469 C 22.589844 2.105469 23.15625 2.671875 23.15625 3.367188 Z M 23.15625 20.632812"/>
</svg>

<svg xmlns="http://www.w3.org/2000/svg" width="32" height="32" viewBox="0 0 24 24">
    <path d="M21.895 1.262c-1.16 0-2.106.945-2.106 2.105v.957L3.352 9.535A1.676 1.676 0 0 0 1.684 8C.754 8 0 8.754 0 9.684v4.632C0 15.246.754 16 1.684 16c.879 0 1.593-.676 1.668-1.535l1.418.45a1.666 1.666 0 0 0-.375 2.01c.207.403.554.7.98.837l6.008 1.945a1.698 1.698 0 0 0 1.285-.102 1.673 1.673 0 0 0 .863-1.914l6.258 1.985v.957c0 1.16.945 2.105 2.106 2.105 1.16 0 2.105-.945 2.105-2.105V3.367c0-1.16-.945-2.105-2.105-2.105zm-9.192 17.101a.84.84 0 0 1-1.058.543l-6.008-1.945a.841.841 0 1 1 .516-1.602l6.011 1.946a.84.84 0 0 1 .54 1.058zM2.527 14.316a.842.842 0 0 1-1.683 0V9.684a.842.842 0 0 1 1.684 0zm.84-.73v-3.172L19.79 5.207v13.586zm19.79 7.047c0 .695-.567 1.262-1.262 1.262a1.264 1.264 0 0 1-1.262-1.262V3.367c0-.695.566-1.262 1.262-1.262.695 0 1.261.567 1.261 1.262zm0 0"/>
</svg>
